Sources/FrostedUI/Resources/Icons.xcassets/webcamOff32.imageset/webcam-off-32.svg

<svg width="32" height="32" viewBox="0 0 32 32" fill="none" xmlns="http://www.w3.org/2000/svg" data-fui-icon="true">
  <path
    d="M2.96973 2.97009C3.25887 2.68095 3.72487 2.6776 4.01855 2.95935L29.04 27.9808C29.3224 28.2745 29.3196 28.7413 29.0303 29.0306C28.7375 29.3232 28.2626 29.3231 27.9697 29.0306L22.9938 24.0548C22.7538 23.8147 22.3488 23.8789 22.1644 24.1639C20.9634 26.0207 18.8772 27.2503 16.5 27.2504H9.5C5.88896 27.2503 2.94008 24.414 2.75879 20.848L2.75 20.5004V11.5004C2.75012 9.59568 3.53914 7.87484 4.80811 6.64757C5.0205 6.44216 5.03865 6.09956 4.82972 5.89063L2.96973 4.03064C2.67705 3.7378 2.67709 3.26295 2.96973 2.97009ZM6.59962 7.66054C6.42156 7.48248 6.13697 7.46279 5.95146 7.63306C4.9061 8.59253 4.25012 9.96966 4.25 11.5004V20.5004L4.25684 20.7709C4.39797 23.5443 6.69156 25.7503 9.5 25.7504H16.5C18.5979 25.7503 20.4057 24.5181 21.2451 22.7385C21.3303 22.558 21.2846 22.3455 21.1435 22.2044L6.59962 7.66054ZM16.5 4.75037C19.2676 4.75042 21.6421 6.41643 22.6831 8.79945C22.8304 9.13649 23.2712 9.25671 23.543 9.00884L25.3154 7.39197C26.8237 6.01546 29.2494 7.0855 29.25 9.12732V22.8724C29.2498 23.6406 28.9062 24.2703 28.3976 24.6843C28.2222 24.8272 27.9708 24.7905 27.8108 24.6305L27.7445 24.5643C27.4313 24.251 27.6679 23.452 27.7387 23.0147C27.7461 22.969 27.75 22.9215 27.75 22.8724V9.12732C27.7495 8.38912 26.8726 8.00211 26.3271 8.49939L23.1328 11.4154C22.6004 11.9011 21.789 11.545 21.7109 10.8832C21.4057 8.27491 19.1897 6.25043 16.5 6.25037H9.5C9.45629 6.25037 9.41421 6.23391 9.3833 6.203L8.73191 5.55162C8.45172 5.27142 8.59579 4.80006 8.99088 4.76984C9.15892 4.75699 9.32869 4.75037 9.5 4.75037H16.5Z"
    fill="currentColor"
  />
</svg>

<svg xmlns="http://www.w3.org/2000/svg" width="32" height="32" fill="none" data-fui-icon="true" viewBox="0 0 32 32"><path fill="currentColor" d="M2.97 2.97a.75.75 0 0 1 1.049-.01L29.04 27.98a.75.75 0 0 1-1.07 1.05l-4.976-4.975c-.24-.24-.645-.176-.83.109A6.73 6.73 0 0 1 16.5 27.25h-7a6.75 6.75 0 0 1-6.741-6.402L2.75 20.5v-9c0-1.904.79-3.625 2.058-4.852a.533.533 0 0 0 .022-.757L2.97 4.03a.75.75 0 0 1 0-1.06M6.6 7.66a.47.47 0 0 0-.649-.027A5.24 5.24 0 0 0 4.25 11.5v9l.007.27A5.25 5.25 0 0 0 9.5 25.75h7a5.24 5.24 0 0 0 4.745-3.012.47.47 0 0 0-.102-.534zm9.9-2.91a6.75 6.75 0 0 1 6.183 4.05c.147.336.588.457.86.209l1.772-1.617c1.509-1.377 3.934-.307 3.935 1.735v13.745a2.3 2.3 0 0 1-.852 1.812c-.176.143-.427.107-.587-.053l-.067-.067c-.313-.313-.076-1.112-.005-1.55a1 1 0 0 0 .011-.142V9.127a.85.85 0 0 0-1.423-.628l-3.194 2.916c-.533.486-1.344.13-1.422-.532A5.25 5.25 0 0 0 16.5 6.25h-7a.16.16 0 0 1-.117-.047l-.651-.651c-.28-.28-.136-.752.259-.782q.252-.02.509-.02z"/></svg>
